X: 20153
T: The CHAPTER OF FASHIONS
O: Old air.
Q: "With spirit."
%R: jig
B: W. Hamilton "Universal Tune-Book" Vol. 2 Glasgow 1846 p.15 #3
S: http://s3-eu-west-1.amazonaws.com/itma.dl.printmaterial/book_pdfs/hamiltonvol2web.pdf
Z: 2016 John Chambers <jc:trillian.mit.edu>
M: 6/8
L: 1/8
K: A
% - - - - - - - - - - - - - - - - - - - - - - - - -
[|\
EAA AGA | B2G E2E | EBB Bcd | (ee)c A2e/d/ |\
cde edc | f2d B2B/B/ | Bcd dcB | (ee)c A2E |\
EAA GAB | Acd Bcd | cec dBG | A2z z2z |]
% - - - - - - - - - - - - - - - - - - - - - - - - -
%%begintext align
%% Thomas Dibdin's song with the above title is sung to this air.
%%endtext
%%sep 1 1 300

%%sep 1 1 500
%%sep 1 1 500

